semantic/assets/images/home/cards/trust-ssl-secure.svg

<?xml version="1.0" encoding="UTF-8"?>
<svg width="66px" height="23px" viewBox="0 0 66 23" version="1.1" xmlns="http://www.w3.org/2000/svg" xmlns:xlink="http://www.w3.org/1999/xlink">
    <!-- Generator: Sketch 46.1 (44463) - http://www.bohemiancoding.com/sketch -->
    <title>icons/trust-ssl-secure</title>
    <desc>Created with Sketch.</desc>
    <defs></defs>
    <g id="Symbols" stroke="none" stroke-width="1" fill="none" fill-rule="evenodd">
        <g id="icons/trust-ssl-secure" transform="translate(-2.000000, -1.000000)">
            <g>
                <g id="icons/security-shield">
                    <g id="icon">
                        <rect id="size" x="0" y="0" width="24" height="24"></rect>
                        <path d="M19.3901418,13.5790009 C20.0666542,11.739169 20.499999,9.56991591 20.4999986,7.03142498 C20.4999986,7.02631576 20.4740164,5.67075711 20.1796663,4.31519842 C19.8853161,2.95963974 19.3000122,1.5 19.3000122,1.5 C19.3000122,1.5 15.3943541,2.60526316 11.4999962,2.60526316 C7.60563832,2.60526316 3.69999841,1.5 3.69999841,1.5 C3.69999841,1.5 3.13252396,2.91575418 2.82864437,4.31519842 C2.52476478,5.71464267 2.49999735,7.02631579 2.49999735,7.02631579 C2.49999735,18.6315789 11.5,22.5 11.5,22.5 C11.5,22.5 12.6312687,22.0097836 14.0916527,20.8614078 C13.714138,20.1581272 13.5,19.3540709 13.5,18.5 C13.5,15.7385763 15.7385763,13.5 18.5,13.5 C18.8038039,13.5 19.1012794,13.5270952 19.3901418,13.5790009 Z" id="Combined-Shape" stroke="#596383" fill="#596383" stroke-linecap="round" stroke-linejoin="round"></path>
                        <g id="circle-action" transform="translate(13.000000, 13.000000)" stroke="#596383" stroke-linecap="round" stroke-linejoin="round">
                            <circle id="bg" cx="5.5" cy="5.5" r="5"></circle>
                            <g id="padlock" transform="translate(3.000000, 2.000000)">
                                <rect id="Rectangle-2" x="0.5" y="2.5" width="4" height="3"></rect>
                                <path d="M3.5,2 L3.5,1.5 C3.5,0.94771525 3.05228475,0.5 2.5,0.5 C1.94771525,0.5 1.5,0.94771525 1.5,1.5 L1.5,2" id="bg"></path>
                            </g>
                        </g>
                        <path d="M9.11377246,9.61277445 C9.11377246,10.045245 8.95742006,10.384563 8.64471058,10.6307385 C8.3320011,10.8769141 7.90064591,11 7.35063207,11 C6.80061823,11 6.35041204,10.9146161 6,10.7438456 L6,9.99201597 C6.22177977,10.0962525 6.45741725,10.1783097 6.70691949,10.2381903 C6.95642174,10.2980708 7.18873257,10.3280106 7.40385895,10.3280106 C7.71878623,10.3280106 7.95109706,10.268131 8.1007984,10.1483699 C8.25049975,10.0286088 8.3253493,9.86782092 8.3253493,9.66600133 C8.3253493,9.48414192 8.2565986,9.33000729 8.11909514,9.20359281 C7.98159168,9.07717834 7.69771783,8.92747924 7.26746507,8.75449102 C6.82390552,8.5748494 6.51120073,8.36970619 6.32934132,8.13905522 C6.1474819,7.90840426 6.05655356,7.6311837 6.05655356,7.30738523 C6.05655356,6.90152824 6.20070825,6.58217016 6.48902196,6.3493014 C6.77733566,6.11643263 7.16433556,6 7.65003327,6 C8.11577079,6 8.57928357,6.10201717 9.0405855,6.30605456 L8.78775782,6.95475715 C8.35528726,6.77289774 7.96939624,6.68196939 7.63007319,6.68196939 C7.37280865,6.68196939 7.17764538,6.73796795 7.04457751,6.84996673 C6.91150965,6.96196552 6.84497671,7.1100013 6.84497671,7.29407851 C6.84497671,7.42049298 6.87158989,7.528609 6.92481703,7.61842981 C6.97804418,7.70825062 7.06564587,7.79308011 7.18762475,7.87292083 C7.30960363,7.95276154 7.52916231,8.05810536 7.84630739,8.18895542 C8.20337282,8.33754787 8.46506903,8.47615815 8.63140386,8.60479042 C8.79773869,8.73342269 8.91971574,8.87868626 8.99733866,9.0405855 C9.07496158,9.20248473 9.11377246,9.39321248 9.11377246,9.61277445 Z M12.9951209,9.61277445 C12.9951209,10.045245 12.8387685,10.384563 12.526059,10.6307385 C12.2133495,10.8769141 11.7819943,11 11.2319805,11 C10.6819666,11 10.2317605,10.9146161 9.88134841,10.7438456 L9.88134841,9.99201597 C10.1031282,10.0962525 10.3387657,10.1783097 10.5882679,10.2381903 C10.8377702,10.2980708 11.070081,10.3280106 11.2852074,10.3280106 C11.6001346,10.3280106 11.8324455,10.268131 11.9821468,10.1483699 C12.1318482,10.0286088 12.2066977,9.86782092 12.2066977,9.66600133 C12.2066977,9.48414192 12.137947,9.33000729 12.0004436,9.20359281 C11.8629401,9.07717834 11.5790662,8.92747924 11.1488135,8.75449102 C10.7052539,8.5748494 10.3925491,8.36970619 10.2106897,8.13905522 C10.0288303,7.90840426 9.93790197,7.6311837 9.93790197,7.30738523 C9.93790197,6.90152824 10.0820567,6.58217016 10.3703704,6.3493014 C10.6586841,6.11643263 11.045684,6 11.5313817,6 C11.9971192,6 12.460632,6.10201717 12.9219339,6.30605456 L12.6691062,6.95475715 C12.2366357,6.77289774 11.8507447,6.68196939 11.5114216,6.68196939 C11.2541571,6.68196939 11.0589938,6.73796795 10.9259259,6.84996673 C10.7928581,6.96196552 10.7263251,7.1100013 10.7263251,7.29407851 C10.7263251,7.42049298 10.7529383,7.528609 10.8061654,7.61842981 C10.8593926,7.70825062 10.9469943,7.79308011 11.0689732,7.87292083 C11.190952,7.95276154 11.4105107,8.05810536 11.7276558,8.18895542 C12.0847212,8.33754787 12.3464174,8.47615815 12.5127523,8.60479042 C12.6790871,8.73342269 12.8010641,8.87868626 12.8786871,9.0405855 C12.95631,9.20248473 12.9951209,9.39321248 12.9951209,9.61277445 Z M14.0720781,10.9334664 L14.0720781,6.06986028 L14.8671546,6.06986028 L14.8671546,10.251497 L16.9263695,10.251497 L16.9263695,10.9334664 L14.0720781,10.9334664 Z" id="SSL" fill="#FFFFFF"></path>
                    </g>
                </g>
                <text id="SECURE" font-family="OpenSans-Extrabold, Open Sans" font-size="11" font-weight="600" fill="#596383">
                    <tspan x="27" y="16">SECURE</tspan>
                </text>
            </g>
        </g>
    </g>
</svg>

<svg xmlns="http://www.w3.org/2000/svg" width="69" height="24" viewBox="0 0 69 24">
    <g fill="none" fill-rule="evenodd">
        <path d="M0 0h24v24H0z"/>
        <path fill="#596383" stroke="#596383" stroke-linecap="round" stroke-linejoin="round" d="M19.39 13.579c.677-1.84 1.11-4.01 1.11-6.548 0-.005-.026-1.36-.32-2.716C19.885 2.96 19.3 1.5 19.3 1.5s-3.906 1.105-7.8 1.105C7.606 2.605 3.7 1.5 3.7 1.5s-.567 1.416-.871 2.815c-.304 1.4-.329 2.711-.329 2.711 0 11.606 9 15.474 9 15.474s1.131-.49 2.592-1.639a5 5 0 0 1 5.298-7.282z"/>
        <g stroke="#596383" stroke-linecap="round" stroke-linejoin="round" transform="translate(13 13)">
            <circle cx="5.5" cy="5.5" r="5"/>
            <path d="M3.5 4.5h4v3h-4zM6.5 4v-.5a1 1 0 1 0-2 0V4"/>
        </g>
        <path fill="#FFF" d="M9.114 9.613c0 .432-.157.772-.47 1.018-.312.246-.743.369-1.293.369-.55 0-1-.085-1.351-.256v-.752c.222.104.457.186.707.246.25.06.482.09.697.09.315 0 .547-.06.697-.18.15-.12.224-.28.224-.482a.605.605 0 0 0-.206-.462c-.137-.127-.421-.277-.852-.45-.443-.18-.756-.384-.938-.615a1.302 1.302 0 0 1-.272-.832c0-.405.144-.725.432-.958C6.777 6.116 7.164 6 7.65 6c.466 0 .93.102 1.39.306l-.252.649c-.433-.182-.819-.273-1.158-.273-.257 0-.452.056-.585.168a.552.552 0 0 0-.2.444c0 .126.027.235.08.324.053.09.14.175.263.255.122.08.341.185.658.316.357.149.62.287.785.416.167.128.289.274.366.436.078.161.117.352.117.572zm3.881 0c0 .432-.156.772-.469 1.018-.313.246-.744.369-1.294.369s-1-.085-1.35-.256v-.752c.221.104.457.186.706.246.25.06.482.09.697.09.315 0 .547-.06.697-.18.15-.12.225-.28.225-.482A.605.605 0 0 0 12 9.204c-.137-.127-.42-.277-.851-.45-.444-.18-.756-.384-.938-.615a1.302 1.302 0 0 1-.273-.832c0-.405.144-.725.432-.958.289-.233.676-.349 1.161-.349.466 0 .93.102 1.39.306l-.252.649c-.432-.182-.818-.273-1.158-.273-.257 0-.452.056-.585.168a.552.552 0 0 0-.2.444c0 .126.027.235.08.324.053.09.141.175.263.255.122.08.342.185.659.316.357.149.618.287.785.416.166.128.288.274.366.436.077.161.116.352.116.572zm1.077 1.32V6.07h.795v4.181h2.06v.682h-2.855z"/>
        <text fill="#596383" font-family="OpenSans-Extrabold, Open Sans" font-size="11" font-weight="600">
            <tspan x="27" y="16">SECURE</tspan>
        </text>
    </g>
</svg>
